X:376
T:Kit O'Connor
R:reel
D:Tommy Peoples & Daithi Sproule: The Iron Man
Z:id:hn-reel-376
M:C|
K:A
~E3F ABcd|eAcA BAFA|~E3F ABcA|BF~F2 BFAF|
E2CE A,ECE|c2cA BAFE|CE~E2 Acfc|1 ecBc A3F:|2 ecBc A3f||
|:eAcA EAcf|eAcA BAFA|ec~c2 ecaf|ecAc Bcdf|
ec~c2 acfc|ecAc BAFA|affe f2af|1 eAcA Bcdf:|2 e2cA BAFD||

